; generated by PrusaSlicer 2.5.0+linux-x64-GTK3 on 2022-10-19 at 18:25:28 UTC

; 

; external perimeters extrusion width = 0.28mm
; perimeters extrusion width = 0.10mm
; infill extrusion width = 0.11mm
; solid infill extrusion width = 0.28mm
; top infill extrusion width = 0.10mm
; first layer extrusion width = 0.12mm

M201 X1000 Y1000 Z80 E5000 ; sets maximum accelerations, mm/sec^2
M203 X9000 Y9000 Z480 E6000 ; sets maximum feedrates, mm / min
M204 P1000 T1500 ; sets acceleration (P, T), mm/sec^2
M566 X480.00 Y480.00 Z12.00 E120.00 ; sets the jerk limits, mm/min
M107
;TYPE:Custom
; IG RC preflight written by Jess Sullivan
; Updated 10/18/22

G1 Z60 F100 ; Move bed down 60
M190 S60 ; Wait for bed temp to rise
G28 ; home all axes
G32 ; Autocalibrate bed
G28 ; Home after bed leveling

G1 Z20 F100 ; Move bed down 20
M109 S210 ; wait for extruder final temp

M116 ; wait for temperature to be reached

; IG RC End G-code
; M400                                    ; Wait for all previous moves to complete
; M109 S0 ;
; M190 S0                               ; turn off bed heater

; G1 Z100 F200 ; Move bed down 100mm for part removal
G21 ; set units to millimeters
G90 ; use absolute coordinates
M83 ; use relative distances for extrusion
M107
;LAYER_CHANGE
;Z:0.1
;HEIGHT:0.1
;BEFORE_LAYER_CHANGE
;0.1
;LAYER:0

M104 S220 


G1 Z.1 F8400
;AFTER_LAYER_CHANGE
;0.1
G1 E-.5 F2700
G1 Z.28 F8400
G1 X87.999 Y39.48
G1 Z.1
G1 E.5 F2400
;TYPE:External perimeter
;WIDTH:0.223148
G1 F882
G1 X88.117 Y39.444 E.00096
;WIDTH:0.221312
G1 X88.4 Y39.466 E.00216
;WIDTH:0.233198
G1 X88.599 Y39.547 E.00175
;WIPE_START
G1 F6720
G1 X88.4 Y39.466 E-.08236
G1 X88.117 Y39.444 E-.1081
G1 X87.999 Y39.48 E-.04737
;WIPE_END
G1 E-.26217 F2700
G1 Z.28 F8400
G1 X87.979 Y39.443
G1 X88.656 Y39.522
G1 X88.858 Y39.298
G1 X89 Y39.017
G1 X88.801 Y38.904
G1 X88.758 Y38.881
G1 X88.713 Y38.86
G1 X88.667 Y38.841
G1 X88.622 Y38.825
G1 X88.532 Y38.795
G1 X88.43 Y38.771
G1 X88.377 Y38.761
G1 X88.323 Y38.752
G1 X88.269 Y38.746
G1 X88.216 Y38.743
G1 X88.11 Y38.739
G1 X88.014 Y38.744
G1 X87.922 Y38.751
G1 X87.874 Y38.757
G1 X87.826 Y38.765
G1 X87.777 Y38.775
G1 X87.727 Y38.788
G1 X87.679 Y38.804
G1 X87.632 Y38.823
G1 X87.586 Y38.843
G1 X87.542 Y38.866
G1 X87.462 Y38.912
G1 X87.368 Y38.97
G1 X87.296 Y39.049
G1 X87.266 Y39.084
G1 X87.236 Y39.12
G1 X87.208 Y39.159
G1 X87.18 Y39.201
G1 X87.155 Y39.246
G1 X87.134 Y39.293
G1 X87.117 Y39.342
G1 X87.103 Y39.39
G1 X87.093 Y39.438
G1 X87.085 Y39.485
G1 X87.089 Y39.52
G1 X87.091 Y39.532
G1 X87.114 Y39.669
G1 X87.128 Y39.747
G1 X87.135 Y40.11
G1 X87.107 Y40.11
G1 Z.1
G1 E.5 F2400
;WIDTH:0.227412
G1 F882
G1 X87.073 Y39.698 E.00326
G1 X87.019 Y40.499 F8400
;TYPE:Perimeter
;WIDTH:0.129527
G1 F900
G1 X86.996 Y40.793 E.00122
G1 X86.884 Y40.615 E.00087
G1 X86.991 Y40.524 E.00058
G1 X86.237 Y40.684 F8400
;TYPE:External perimeter
;WIDTH:0.199294
G1 F882
G1 X86.607 Y40.642 E.00253
;WIDTH:0.200872
G1 X86.717 Y40.601 E.00081
;WIPE_START
G1 F6720
G1 X86.607 Y40.642 E-.04502
G1 X86.237 Y40.684 E-.14204
;WIPE_END
G1 E-.31294 F2700
G1 Z.28 F8400
G1 X86.234 Y40.681
G1 X86.772 Y40.622
G1 X86.953 Y40.785
G1 X87.069 Y41.096
G1 X86.909 Y41.225
G1 X86.863 Y41.248
G1 X86.814 Y41.269
G1 X86.765 Y41.288
G1 X86.717 Y41.304
G1 X86.621 Y41.334
G1 X86.517 Y41.357
G1 X86.464 Y41.367
G1 X86.409 Y41.376
G1 X86.355 Y41.382
G1 X86.301 Y41.386
G1 X86.195 Y41.39
G1 X86.109 Y41.387
G1 X86.026 Y41.382
G1 X85.982 Y41.377
G1 X85.938 Y41.371
G1 X85.893 Y41.363
G1 X85.848 Y41.352
G1 X85.803 Y41.337
G1 X85.759 Y41.32
G1 X85.718 Y41.301
G1 X85.677 Y41.28
G1 X85.605 Y41.237
G1 X85.518 Y41.182
G1 X85.459 Y41.11
G1 X85.414 Y41.053
G1 X85.395 Y41.017
G1 X85.358 Y40.944
G1 X85.34 Y40.905
G1 X85.324 Y40.866
G1 X85.31 Y40.827
G1 X85.301 Y40.788
G1 X85.295 Y40.749
G1 X85.287 Y40.677
G1 X85.285 Y40.658
G1 X85.286 Y40.602
G1 X85.31 Y40.523
G1 X85.357 Y40.208
G1 X85.332 Y40.204
G1 Z.1
G1 E.5 F2400
;WIDTH:0.188348
G1 F882
G1 X85.321 Y39.86 E.0022
;WIPE_START
G1 F6720
G1 X85.332 Y40.204 E-.1313
;WIPE_END
G1 E-.3687 F2700
G1 Z.28 F8400
G1 X85.296 Y40.201
G1 X85.293 Y40.233
G1 X85.288 Y40.262
G1 X85.282 Y40.292
G1 X85.274 Y40.323
G1 X85.264 Y40.354
G1 X85.252 Y40.384
G1 X85.238 Y40.414
G1 X85.223 Y40.444
G1 X85.215 Y40.458
G1 X85.193 Y40.496
G1 X85.126 Y40.525
G1 X84.835 Y40.611
G1 X84.8 Y40.621
G1 X84.764 Y40.63
G1 X84.745 Y40.633
G1 X84.693 Y40.642
G1 X84.486 Y40.677
G1 X84.482 Y40.68
G1 X84.485 Y40.684
G1 Z.1
G1 E.5 F2400
;WIDTH:0.1993
G1 F882
G1 X84.855 Y40.642 E.00253
;WIDTH:0.200874
G1 X84.965 Y40.602 E.00081
;WIPE_START
G1 F6720
G1 X84.855 Y40.642 E-.04491
G1 X84.485 Y40.684 E-.14203
;WIPE_END
G1 E-.31306 F2700
G1 Z.28 F8400
G1 X84.482 Y40.68
G1 X85.02 Y40.622
G1 X85.201 Y40.785
G1 X85.359 Y41.109
G1 X85.157 Y41.225
G1 X85.111 Y41.248
G1 X85.062 Y41.269
G1 X85.013 Y41.288
G1 X84.965 Y41.304
G1 X84.869 Y41.334
G1 X84.765 Y41.357
G1 X84.712 Y41.367
G1 X84.657 Y41.376
G1 X84.603 Y41.382
G1 X84.549 Y41.386
G1 X84.443 Y41.39
G1 X84.357 Y41.387
G1 X84.274 Y41.382
G1 X84.23 Y41.377
G1 X84.186 Y41.371
G1 X84.141 Y41.363
G1 X84.096 Y41.352
G1 X84.051 Y41.337
G1 X84.007 Y41.32
G1 X83.966 Y41.301
G1 X83.925 Y41.28
G1 X83.853 Y41.237
G1 X83.766 Y41.182
G1 X83.707 Y41.11
G1 X83.662 Y41.053
G1 X83.639 Y41.019
G1 X83.618 Y40.984
G1 X83.599 Y40.947
G1 X83.582 Y40.908
G1 X83.568 Y40.867
G1 X83.557 Y40.827
G1 X83.549 Y40.788
G1 X83.543 Y40.749
G1 X83.535 Y40.677
G1 X83.529 Y40.602
G1 X83.529 Y40.523
G1 X83.608 Y40.072
G1 X83.608 Y40.063
G1 X83.561 Y40.063
G1 Z.1
G1 E.5 F2400
;WIDTH:0.209998
G1 F882
G1 X83.572 Y39.537 E.00379
G1 X83.47 Y40.338 F8400
;TYPE:Perimeter
;WIDTH:0.119999
G1 F900
G1 X83.444 Y40.57 E.00088
G1 X83.488 Y40.928 E.00136
G1 X83.033 Y40.957 E.00172
G1 X83.448 Y40.368 E.00272
G1 X83.333 Y40.785 F8400
;WIDTH:0.200776
G1 F2520
G1 X83.299 Y40.805 E.00027
G1 X83.333 Y40.824 E.00027
G1 X83.344 Y40.805 E.00015
;WIPE_START
G1 F6720
G1 X83.333 Y40.824 E-.00856
G1 X83.299 Y40.805 E-.01482
G1 X83.333 Y40.785 E-.01482
;WIPE_END
G1 E-.46181 F2700
G1 Z.28 F8400
G1 X83.535 Y40.06
G1 X83.535 Y39.479
G1 X83.393 Y39.399
G1 X81.684 Y39.399
G1 X81.695 Y39.621
G1 X81.78 Y40.103
G1 X81.906 Y40.14
G1 X82.289 Y40.195
G1 X82.281 Y40.253
G1 Z.1
G1 E.5 F2400
;WIDTH:0.119999
G1 F900
G1 X81.862 Y40.779 E.00253
G1 X81.901 Y40.46 E.00121
G1 X81.847 Y40.212 E.00096
G1 X82.244 Y40.25 E.0015
G1 X81.749 Y40.094 F8400
;TYPE:External perimeter
;WIDTH:0.216888
G1 F882
G1 X81.697 Y39.828 E.00203
G1 X82.034 Y40.344 F8400
;TYPE:Perimeter
;WIDTH:0.18933
G1 F2520
G1 X82.003 Y40.362 E.00023
G1 X82.034 Y40.381 E.00023
G1 X82.045 Y40.362 E.00013
;WIPE_START
G1 F6720
G1 X82.034 Y40.381 E-.00801
G1 X82.003 Y40.362 E-.01387
G1 X82.034 Y40.344 E-.01387
;WIPE_END
G1 E-.46425 F2700
G1 Z.28 F8400
G1 X82.06 Y40.162
G1 X81.748 Y40.855
G1 X81.727 Y40.899
G1 X81.703 Y40.941
G1 X81.678 Y40.98
G1 X81.652 Y41.018
G1 X81.625 Y41.054
G1 X81.561 Y41.137
G1 X81.473 Y41.2
G1 X81.435 Y41.226
G1 X81.395 Y41.251
G1 X81.354 Y41.276
G1 X81.31 Y41.299
G1 X81.263 Y41.32
G1 X81.215 Y41.338
G1 X81.167 Y41.352
G1 X81.118 Y41.363
G1 X81.07 Y41.371
G1 X81.022 Y41.377
G1 X80.932 Y41.385
G1 X80.836 Y41.39
G1 X80.74 Y41.385
G1 X80.65 Y41.377
G1 X80.602 Y41.371
G1 X80.554 Y41.363
G1 X80.506 Y41.352
G1 X80.457 Y41.338
G1 X80.409 Y41.32
G1 X80.363 Y41.299
G1 X80.319 Y41.276
G1 X80.277 Y41.251
G1 X80.238 Y41.226
G1 X80.2 Y41.2
G1 X80.112 Y41.137
G1 X80.047 Y41.054
G1 X80.04 Y41.044
G1 X80.025 Y41.014
G1 X80.021 Y41.003
G1 X79.864 Y40.588
G1 X79.88 Y39.822
G1 X79.88 Y39.788
G1 X79.878 Y39.753
G1 X79.873 Y39.716
G1 X79.871 Y39.704
G1 X79.863 Y39.68
G1 X79.858 Y39.67
G1 X79.84 Y39.64
G1 X79.82 Y39.611
G1 X79.783 Y39.563
G1 X79.733 Y39.504
G1 X79.669 Y39.462
G1 X79.618 Y39.43
G1 X79.562 Y39.401
G1 X79.529 Y39.387
G1 X79.496 Y39.375
G1 X79.462 Y39.365
G1 X79.428 Y39.358
G1 X79.367 Y39.348
G1 X79.308 Y39.343
G1 X79.244 Y39.339
G1 X79.156 Y39.344
G1 X79.11 Y39.348
G1 X79.064 Y39.356
G1 X79.017 Y39.367
G1 X78.973 Y39.381
G1 X78.794 Y39.449
G1 X78.831 Y39.632
G1 X79.014 Y40.526
G1 X79 Y40.693
G1 X78.962 Y40.69
G1 Z.1
G1 E.5 F2400
;TYPE:External perimeter
;WIDTH:0.226776
G1 F882
G1 X78.972 Y40.178 E.00401
;WIDTH:0.237116
G1 X78.814 Y39.715 E.00404
G1 X77.973 Y40.068 F8400
;WIDTH:0.203314
G1 F882
G1 X77.727 Y40.093 E.00172
;WIDTH:0.176718
G1 X77.481 Y40.119 E.00147
G1 X77.187 Y40.878 F8400
;WIDTH:0.252724
G1 F882
G1 X77.193 Y40.537 E.00301
;WIDTH:0.218401
G1 X77.199 Y40.196 E.00257
;WIDTH:0.184078
G1 X77.199 Y40.195 E.00001
G1 X76.258 Y40.066 F8400
;WIDTH:0.20049
G1 F882
G1 X76.011 Y40.089 E.0017
;WIDTH:0.168876
G1 X75.764 Y40.113 E.0014
;WIPE_START
G1 F6720
G1 X76.011 Y40.089 E-.09466
G1 X76.258 Y40.066 E-.09466
;WIPE_END
G1 E-.31067 F2700
G1 Z.28 F8400
G1 X76.26 Y40.08
G1 X75.747 Y40.1
G1 X75.577 Y39.945
G1 X75.482 Y39.823
G1 X75.38 Y39.632
G1 X75.581 Y39.514
G1 X75.626 Y39.49
G1 X75.672 Y39.468
G1 X75.718 Y39.449
G1 X75.765 Y39.431
G1 X75.856 Y39.4
G1 X75.956 Y39.375
G1 X76.007 Y39.364
G1 X76.06 Y39.355
G1 X76.114 Y39.348
G1 X76.166 Y39.344
G1 X76.27 Y39.339
G1 X86.415 Y39.339
G1 X86.51 Y39.344
G1 X86.558 Y39.349
G1 X86.607 Y39.357
G1 X86.655 Y39.369
G1 X86.701 Y39.383
G1 X86.791 Y39.417
G1 X86.865 Y39.461
G1 X86.903 Y39.486
G1 X86.94 Y39.515
G1 X86.967 Y39.555
G1 X86.975 Y39.567
G1 X86.988 Y39.596
G1 X86.997 Y39.616
G1 X87.022 Y39.675
G1 X87.031 Y39.701
G1 X87.048 Y39.766
G1 X87.055 Y39.795
G1 X87.057 Y39.806
G1 X87.062 Y39.835
G1 X87.064 Y39.847
G1 X87.067 Y39.875
G1 X87.071 Y39.915
G1 X87.1 Y40.504
G1 X87.067 Y40.73
G1 X87.067 Y40.804
G1 X87.091 Y41.305
G1 X87.288 Y41.33
G1 X88.126 Y41.386
G1 X88.206 Y41.39
G1 X88.31 Y41.381
G1 X88.364 Y41.373
G1 X88.419 Y41.36
G1 X88.472 Y41.342
G1 X88.522 Y41.32
G1 X88.616 Y41.272
G1 X88.665 Y41.235
G1 X88.706 Y41.203
G1 X89.434 Y40.599
G1 Z.1
G1 E.5 F2400
;TYPE:Perimeter
;WIDTH:0.194342
G1 F2520
G1 X89.584 Y40.74 E.00136
;WIDTH:0.157171
G1 X89.782 Y40.925 E.00141
;WIDTH:0.119999
G1 X90.241 Y41.413 E.00252
G1 X90.54 Y41.851 E.002
G1 X90.744 Y42.324 E.00194
G1 X90.818 Y42.771 E.0017
G1 X90.701 Y43.816 E.00397
G1 X90.677 Y44.362 E.00206
G1 X90.759 Y44.859 E.0019
G1 X90.93 Y45.281 E.00172
G1 X91.31 Y45.873 E.00265
G1 X92.118 Y46.958 E.0051
G1 X91.985 Y46.942 E.0005
G1 X91.401 Y46.757 E.00231
G1 X90.923 Y46.5 E.00204
G1 X90.513 Y46.129 E.00208
G1 X90.313 Y45.841 E.00132
G1 X89.823 Y44.613 E.00499
G1 X89.456 Y44.005 E.00268
G1 X88.915 Y43.458 E.0029
G1 X88.305 Y43.099 E.00267
G1 X87.312 Y42.787 E.00392
G1 X86.677 Y42.676 E.00243
G1 X86.001 Y42.596 E.00257
G1 X84.367 Y42.493 E.00617
G1 X82.235 Y42.456 E.00804
G1 X79.898 Y42.488 E.00881
G1 X79.003 Y42.526 E.00338
G1 X77.951 Y42.61 E.00398
G1 X77.41 Y42.671 E.00205
G1 X76.789 Y42.776 E.00237
G1 X76.245 Y42.913 E.00211
G1 X75.592 Y43.179 E.00266
G1 X75.273 Y43.371 E.0014
G1 X74.823 Y43.725 E.00216
G1 X74.322 Y44.404 E.00318
G1 X73.82 Y45.635 E.00501
G1 X73.569 Y46.078 E.00192
G1 X73.303 Y46.361 E.00146
G1 X72.827 Y46.676 E.00215
G1 X72.331 Y46.878 E.00202
G1 X71.932 Y46.956 E.00153
G1 X72.46 Y46.247 E.00333
G1 X73.018 Y45.44 E.0037
G1 X73.258 Y44.92 E.00216
G1 X73.343 Y44.567 E.00137
G1 X73.354 Y44.027 E.00204
G1 X73.218 Y42.881 E.00435
G1 X73.255 Y42.433 E.00169
G1 X73.399 Y42.038 E.00159
G1 X73.735 Y41.497 E.0024
G1 X74.608 Y40.545 E.00487
G1 X74.613 Y40.304 E.00091
G1 X74.526 Y40.168 E.00061
G1 X73.788 Y39.413 E.00398
G1 X73.487 Y38.971 E.00202
G1 X73.286 Y38.504 E.00192
G1 X73.212 Y38.057 E.00171
G1 X73.329 Y37.014 E.00396
G1 X73.352 Y36.468 E.00206
G1 X73.27 Y35.968 E.00191
G1 X73.098 Y35.546 E.00172
G1 X72.72 Y34.957 E.00264
G1 X71.911 Y33.872 E.0051
G1 X72.042 Y33.887 E.0005
G1 X72.629 Y34.072 E.00232
G1 X73.107 Y34.33 E.00204
G1 X73.516 Y34.7 E.00208
G1 X73.717 Y34.988 E.00132
G1 X74.207 Y36.217 E.00499
G1 X74.525 Y36.76 E.00237
G1 X74.886 Y37.174 E.00207
G1 X75.413 Y37.57 E.00249
G1 X75.623 Y37.667 E.00087
G1 X76.383 Y37.957 E.00307
G1 X76.898 Y38.075 E.00199
G1 X77.427 Y38.163 E.00202
G1 X78.153 Y38.243 E.00276
G1 X80.012 Y38.345 E.00702
G1 X82.24 Y38.369 E.0084
G1 X84.693 Y38.313 E.00925
G1 X86.145 Y38.211 E.00549
G1 X86.839 Y38.121 E.00264
G1 X87.343 Y38.024 E.00193
G1 X88.382 Y37.681 E.00412
G1 X88.984 Y37.302 E.00268
G1 X89.452 Y36.813 E.00255
G1 X89.627 Y36.532 E.00125
G1 X89.877 Y36.061 E.00201
G1 X90.162 Y35.291 E.00309
G1 X90.442 Y34.766 E.00225
G1 X90.8 Y34.411 E.0019
G1 X91.442 Y34.038 E.0028
G1 X92.112 Y33.856 E.00262
G1 X91.384 Y34.803 E.0045
G1 X91.087 Y35.239 E.00199
G1 X90.845 Y35.71 E.002
G1 X90.681 Y36.317 E.00237
G1 X90.664 Y36.682 E.00138
G1 X90.813 Y37.958 E.00484
G1 X90.763 Y38.419 E.00175
G1 X90.56 Y38.93 E.00207
G1 X90.268 Y39.366 E.00198
G1 X89.937 Y39.743 E.00189
;WIDTH:0.127229
G1 X89.499 Y40.157 E.00244
;WIDTH:0.164982
G1 X89.427 Y40.294 E.00085
;WIDTH:0.202734
G1 X89.355 Y40.43 E.00107
G1 X89.327 Y40.258 E.00121
;WIDTH:0.166026
G1 X89.299 Y40.086 E.00096
;WIDTH:0.129318
G1 X89.14 Y39.708 E.00169
;WIDTH:0.119999
G1 X89.001 Y39.514 E.0009
G1 X89.176 Y39.264 E.00115
G1 X89.252 Y39.023 E.00095
G1 X89.223 Y38.907 E.00045
G1 X89.069 Y38.742 E.00085
G1 X88.56 Y38.498 E.00213
G1 X88.057 Y38.439 E.00191
G1 X87.597 Y38.509 E.00175
G1 X87.159 Y38.75 E.00189
G1 X86.885 Y39.172 E.0019
G1 X86.634 Y39.073 E.00102
G1 X86.473 Y39.05 E.00061
G1 X85.305 Y39.154 E.00442
G1 X85.208 Y39.224 E.00045
G1 X85.064 Y39.137 E.00064
G1 X84.658 Y39.05 E.00156
G1 X83.521 Y39.196 E.00432
G1 X82.69 Y39.1 E.00315
G1 X81.642 Y39.144 E.00395
G1 X81.541 Y39.258 E.00057
G1 X81.344 Y39.128 E.00089
G1 X80.812 Y39.043 E.00203
G1 X80.358 Y39.114 E.00173
G1 X79.958 Y39.361 E.00177
G1 X79.765 Y39.193 E.00096
G1 X79.543 Y39.085 E.00093
G1 X79.187 Y39.058 E.00135
G1 X78.808 Y39.163 E.00148
G1 X78.675 Y39.245 E.00059
G1 X78.396 Y39.103 E.00118
G1 X77.937 Y39.042 E.00175
G1 X77.445 Y39.145 E.00189
G1 X77.101 Y39.329 E.00147
G1 X76.67 Y39.093 E.00185
G1 X76.217 Y39.039 E.00172
G1 X75.805 Y39.106 E.00157
G1 X75.308 Y39.357 E.0021
G1 X75.154 Y39.529 E.00087
G1 X75.147 Y39.771 E.00091
G1 X75.262 Y39.955 E.00082
G1 X75.168 Y40.104 E.00066
G1 X75.126 Y40.655 E.00208
G1 X75.188 Y40.943 E.00111
G1 X75.416 Y41.357 E.00178
G1 X75.744 Y41.579 E.00149
G1 X76.241 Y41.687 E.00192
G1 X76.569 Y41.662 E.00124
G1 X76.9 Y41.554 E.00131
G1 X77.171 Y41.341 E.0013
G1 X77.475 Y41.577 E.00145
G1 X77.98 Y41.69 E.00195
G1 X78.389 Y41.649 E.00155
G1 X78.686 Y41.525 E.00121
G1 X78.691 Y41.984 E.00173
G1 X79.02 Y42.221 E.00153
G1 X79.965 Y42.211 E.00356
G1 X80.223 Y41.967 E.00134
G1 X80.225 Y41.534 E.00163
G1 X80.335 Y41.603 E.00049
G1 X80.661 Y41.676 E.00126
G1 X81.05 Y41.681 E.00147
G1 X81.392 Y41.596 E.00133
G1 X81.429 Y41.887 E.00111
G1 X81.749 Y42.102 E.00145
G1 X83.54 Y42.099 E.00675
G1 X83.85 Y41.904 E.00138
G1 X83.881 Y41.579 E.00123
G1 X84.149 Y41.671 E.00107
G1 X84.705 Y41.671 E.00209
G1 X85.151 Y41.539 E.00175
G1 X85.357 Y41.421 E.00089
G1 X85.59 Y41.554 E.00101
G1 X85.902 Y41.669 E.00125
G1 X86.457 Y41.668 E.00209
G1 X86.902 Y41.535 E.00175
G1 X87.134 Y41.587 E.00089
G1 X87.777 Y41.621 E.00243
G1 X87.95 Y41.666 E.00067
G1 X88.499 Y41.657 E.00207
G1 X88.977 Y41.372 E.0021
G1 X89.262 Y40.888 E.00212
;WIDTH:0.164294
G1 X89.312 Y40.693 E.0011
;WIDTH:0.208588
G1 X89.361 Y40.497 E.00144
G1 X89.387 Y40.555 E.00045
;WIDTH:0.194342
G1 X89.407 Y40.573 E.00018
G1 X89.538 Y40.518 F8400
;WIDTH:0.119999
G1 F2520
G1 X89.57 Y40.587 E.00029
G1 X90.006 Y41.003 E.00227
G1 X90.346 Y41.391 E.00195
G1 X90.628 Y41.806 E.00189
G1 X90.838 Y42.294 E.00201
G1 X90.917 Y42.77 E.00182
G1 X90.798 Y43.827 E.00401
G1 X90.775 Y44.358 E.002
G1 X90.855 Y44.837 E.00183
G1 X91.013 Y45.228 E.00159
G1 X91.393 Y45.82 E.00265
G1 X92.302 Y47.069 E.00582
G1 X91.956 Y47.036 E.00131
G1 X91.355 Y46.844 E.00238
G1 X90.864 Y46.579 E.0021
G1 X90.443 Y46.198 E.00214
G1 X90.225 Y45.887 E.00143
G1 X89.738 Y44.662 E.00497
G1 X89.385 Y44.073 E.00259
G1 X88.864 Y43.543 E.0028
G1 X88.255 Y43.184 E.00266
G1 X87.295 Y42.884 E.00379
G1 X86.666 Y42.774 E.00241
G1 X85.995 Y42.694 E.00255
G1 X84.366 Y42.592 E.00615
G1 X82.236 Y42.555 E.00803
G1 X79.902 Y42.586 E.0088
G1 X79.01 Y42.624 E.00336
G1 X77.962 Y42.707 E.00396
G1 X77.427 Y42.768 E.00203
